X: 4
T: Up Sligo
R: jig
M: 6/8
L: 1/8
K: Edor
D|EBB BAG|FDF AFD|EBB GBB|AGF E2D|EBB BAG|FDF ABc|ded ~B3|AGF E2:|:A|Bee ede|faf dBA|Bee ede|fec d2A|Bee ede|~f3 dBA|B/c/dB GBd|AGF E2:|


Tune 537	Setting 13486

